packages/icons/raw/imported/ArrowsUpdate.svg

<svg width="32" height="32" viewBox="0 0 32 32" fill="none" xmlns="http://www.w3.org/2000/svg">
<path d="M12.556 6.06791C12.3173 5.92895 12.0112 6.00975 11.8723 6.24838C11.7333 6.48701 11.8141 6.79311 12.0527 6.93207L12.556 6.06791ZM16 8.65201L16.4166 8.92846C16.4928 8.81373 16.5182 8.67269 16.487 8.53859C16.4557 8.4045 16.3706 8.28922 16.2516 8.21993L16 8.65201ZM13.366 11.7174C13.2133 11.9475 13.2761 12.2578 13.5062 12.4105C13.7363 12.5632 14.0466 12.5004 14.1992 12.2703L13.366 11.7174ZM22.0606 10.4786C21.8557 10.2935 21.5395 10.3095 21.3544 10.5144C21.1693 10.7192 21.1852 11.0354 21.3901 11.2206L22.0606 10.4786ZM12.0527 6.93207L15.7484 9.0841L16.2516 8.21993L12.556 6.06791L12.0527 6.93207ZM15.5834 8.37557L13.366 11.7174L14.1992 12.2703L16.4166 8.92846L15.5834 8.37557ZM24 17.076C24 21.4481 20.4225 25 16 25V26C20.9663 26 25 22.0088 25 17.076H24ZM16 25C11.5775 25 8 21.4481 8 17.076H7C7 22.0088 11.0337 26 16 26V25ZM8 17.076C8 12.7039 11.5775 9.15201 16 9.15201V8.15201C11.0337 8.15201 7 12.1432 7 17.076H8ZM21.3901 11.2206C22.9951 12.6709 24 14.7573 24 17.076H25C25 14.4613 23.8653 12.1095 22.0606 10.4786L21.3901 11.2206Z" fill="black"/>
</svg>

<svg width="32" height="32" fill="none" xmlns="http://www.w3.org/2000/svg"><path d="M12.556 6.068a.5.5 0 0 0-.503.864l.503-.864ZM16 8.652l.417.276a.5.5 0 0 0-.165-.708L16 8.652Zm-2.634 3.065a.5.5 0 0 0 .833.553l-.833-.553Zm8.695-1.238a.5.5 0 0 0-.67.742l.67-.742ZM12.053 6.932l3.695 2.152.504-.864-3.696-2.152-.503.864Zm3.53 1.444-2.217 3.341.833.553 2.218-3.342-.834-.552Zm8.417 8.7C24 21.448 20.422 25 16 25v1c4.966 0 9-3.991 9-8.924h-1ZM16 25c-4.422 0-8-3.552-8-7.924H7C7 22.009 11.034 26 16 26v-1Zm-8-7.924c0-4.372 3.578-7.924 8-7.924v-1c-4.966 0-9 3.991-9 8.924h1Zm13.39-5.855A7.868 7.868 0 0 1 24 17.076h1a8.869 8.869 0 0 0-2.94-6.597l-.67.742Z" fill="#000"/></svg>
